ui/StatusQ/src/assets/img/icons/emojiCategories/flags.svg

<svg fill="none" height="18" viewBox="0 0 16 18" width="16" xmlns="http://www.w3.org/2000/svg"><path clip-rule="evenodd" d="m1.80244 2.38248c-.03248.01709-.05244.05097-.05244.08766v6.68314c0 .36003.39262.59073.72817.46023 1.33942-.52088 3.21314-.62835 5.41933.75049 1.79987 1.125 3.4639 1.12 4.6863.8422.6169-.1402 1.1223-.3509 1.4714-.5254.1213-.0606.1948-.1863.1948-.3219v-6.52647c0-.34294-.3379-.58465-.6697-.4982-.2161.05628-.4487.10874-.6961.15373-1.4942.27166-3.5415.27197-5.71961-.81709-1.84087-.92044-3.28943-.90257-4.2519-.68869-.48791.10843-.86286.2701-1.11025.4003zm12.82596-1.03392-.001.00057-.02.01079c-.0197.01047-.0519.02722-.0959.04882-.0882.04324-.2232.10573-.3994.1762-.3531.14125-.867.31279-1.4963.42721-1.2558.22834-2.95848.22803-4.78039-.68292-2.15914-1.079577-3.96058-1.097448-5.24811-.811327-.63709.141577-1.13713.354913-1.48349.537207-.173309.09122-.308824.17502-.404605.23887-.047922.03195-.086005.05898-.11401.07954-.014007.01028-.025504.01896-.034464.02583l-.011537.00894-.004338.00342-.00181.00144-.000815.00065s.00954-.00757.0185-.01445l-.0185.01445-.09458.07566c-.118607.09489-.187651.23854-.187651.39043v15.62011c0 .2762.223858.5.5.5h.5c.27614 0 .5-.2239.5-.5v-5.4762c0-.1393.05713-.2736.16474-.3621.00413-.0034.00828-.0068.01248-.0102.25163-.2053.62194-.4562 1.09461-.64.91058-.3541 2.28686-.4966 4.08067.6245 2.20013 1.3751 4.2861 1.3801 5.8137 1.0329.7581-.1723 1.3777-.4304 1.8098-.6465.2167-.1083.3879-.2069.5079-.2804.06-.0368.1073-.0675.1412-.09.0137-.0091.0252-.0169.0345-.0233.0041-.0028.0082-.0058.0123-.0086.0022-.0016.0046-.0032.0066-.0045.012-.0076.0359-.0245.0496-.0342.0068-.0048.0137-.0095.0207-.014l.0442-.0284.0582-.0446c.028-.0214.0539-.0454.0744-.0741.0314-.0437.0744-.1132.0744-.1654v-9.68564c0-.38392-.4147-.624601-.7481-.43412l-.3718.21247z" fill="#939ba1" fill-rule="evenodd"/></svg>

<svg width="16" height="18" viewBox="0 0 16 18" fill="none" xmlns="http://www.w3.org/2000/svg">
<path fill-rule="evenodd" clip-rule="evenodd" d="M1.80244 2.38248C1.76996 2.39957 1.75 2.43345 1.75 2.47014V9.15328C1.75 9.51331 2.14262 9.74401 2.47817 9.61351C3.81759 9.09263 5.69131 8.98516 7.8975 10.364C9.69737 11.489 11.3614 11.484 12.5838 11.2062C13.2007 11.066 13.7061 10.8553 14.0552 10.6808C14.1765 10.6202 14.25 10.4945 14.25 10.3589V3.83243C14.25 3.48949 13.9121 3.24778 13.5803 3.33423C13.3642 3.39051 13.1316 3.44297 12.8842 3.48796C11.39 3.75962 9.3427 3.75993 7.16459 2.67087C5.32372 1.75043 3.87516 1.7683 2.91269 1.98218C2.42478 2.09061 2.04983 2.25228 1.80244 2.38248ZM14.6284 1.34856L14.6274 1.34913L14.6074 1.35992C14.5877 1.37039 14.5555 1.38714 14.5115 1.40874C14.4233 1.45198 14.2883 1.51447 14.1121 1.58494C13.759 1.72619 13.2451 1.89773 12.6158 2.01215C11.36 2.24049 9.65732 2.24018 7.83541 1.32923C5.67627 0.249653 3.87483 0.231782 2.5873 0.517903C1.95021 0.65948 1.45017 0.872816 1.10381 1.05511C0.930501 1.14633 0.794986 1.23013 0.699205 1.29398C0.651283 1.32593 0.6132 1.35296 0.585195 1.37352C0.571188 1.3838 0.559691 1.39248 0.550731 1.39935L0.539194 1.40829L0.534856 1.41171L0.533046 1.41315L0.532231 1.4138C0.532231 1.4138 0.541771 1.40623 0.550731 1.39935L0.532231 1.4138L0.437651 1.48946C0.319044 1.58435 0.25 1.728 0.25 1.87989V17.5C0.25 17.7762 0.473858 18 0.75 18H1.25C1.52614 18 1.75 17.7761 1.75 17.5V12.0238C1.75 11.8845 1.80713 11.7502 1.91474 11.6617C1.91887 11.6583 1.92302 11.6549 1.92722 11.6515C2.17885 11.4462 2.54916 11.1953 3.02183 11.0115C3.93241 10.6574 5.30869 10.5149 7.1025 11.636C9.30263 13.0111 11.3886 13.0161 12.9162 12.6689C13.6743 12.4966 14.2939 12.2385 14.726 12.0224C14.9427 11.9141 15.1139 11.8155 15.2339 11.742C15.2939 11.7052 15.3412 11.6745 15.3751 11.652C15.3888 11.6429 15.4003 11.6351 15.4096 11.6287C15.4137 11.6259 15.4178 11.6229 15.4219 11.6201C15.4241 11.6185 15.4265 11.6169 15.4285 11.6156C15.4405 11.608 15.4644 11.5911 15.4781 11.5814C15.4849 11.5766 15.4918 11.5719 15.4988 11.5674L15.543 11.539L15.6012 11.4944C15.6292 11.473 15.6551 11.449 15.6756 11.4203C15.707 11.3766 15.75 11.3071 15.75 11.2549V1.56926C15.75 1.18534 15.3353 0.944659 15.0019 1.13514L14.6301 1.34761L14.6284 1.34856Z" fill="#939BA1"/>
</svg>
